docs/assets/img/details/locality/university.svg

<?xml version="1.0" encoding="UTF-8"?>
<svg width="40px" height="27px" viewBox="0 0 40 27" version="1.1" xmlns="http://www.w3.org/2000/svg" xmlns:xlink="http://www.w3.org/1999/xlink">
    <title>university</title>
    <g id="Welcome" stroke="none" stroke-width="1" fill="none" fill-rule="evenodd">
        <g id="lpw-featured-development-detailed-page-1.0" transform="translate(-300.000000, -10138.000000)" fill="#000000" fill-rule="nonzero">
            <g id="university" transform="translate(300.000000, 10138.000000)">
                <path d="M1.11492451,10.2810566 L6.99575912,12.6885192 L6.99575912,22.605283 C6.99575912,25.4596347 13.1128346,26.9524528 19.1552163,26.9524528 C25.197598,26.9524528 31.3146735,25.4596347 31.3146735,22.605283 L31.3146735,12.6885192 L36.5258694,10.5549283 L36.5258694,15.7063245 C35.9097705,15.817123 35.4177366,16.2827022 35.2725768,16.8922325 L34.8218083,18.9832211 C34.7271006,19.4365729 34.8420057,19.908492 35.1344801,20.2673751 C35.4459394,20.6493696 35.9134532,20.8696231 36.4060119,20.8664151 L38.3827922,20.8664151 C38.8753509,20.8696231 39.3428646,20.6493696 39.654324,20.2673751 C39.9467984,19.908492 40.0617034,19.4365729 39.9669958,18.9832211 L39.5179644,16.8965796 C39.373235,16.2853288 38.8804737,15.8179998 38.2629347,15.7063245 L38.2629347,8.69433962 C38.2637736,7.99698472 37.8413397,7.36904174 37.1955081,7.10762264 L20.4580153,0.260830189 C19.6233347,-0.0824639073 18.6870979,-0.0824639073 17.8524173,0.260830189 L1.11492451,7.10762264 C0.469996111,7.37003783 0.0481972221,7.99744791 0.0481972221,8.69433962 C0.0481972221,9.39123137 0.469996111,10.0186414 1.11492451,10.2810566 Z M29.5776081,22.605283 C29.5776081,23.5251442 25.6205734,25.2135849 19.1552163,25.2135849 C12.6898592,25.2135849 8.73282443,23.5251442 8.73282443,22.605283 L8.73282443,13.3997162 L17.8524173,17.1278491 C18.6891836,17.4727678 19.6281972,17.4727678 20.4649635,17.1278491 L29.5776081,13.3997162 L29.5776081,22.605283 Z M36.5675589,19.1275472 L36.9418965,17.3886792 L37.8469075,17.3886792 L38.2212451,19.1275472 L36.5675589,19.1275472 Z M18.5072909,1.86580528 C18.9223501,1.6947935 19.3880825,1.6947935 19.8031416,1.86580528 L36.5319491,8.66390943 L36.5319491,8.67434264 L30.1178355,11.3026415 L30.0995963,11.3104664 L19.8031416,15.522874 C19.3880453,15.6936972 18.9223873,15.6936972 18.5072909,15.522874 L8.31679729,11.3782823 C8.23653775,11.3282835 8.14845933,11.2921339 8.05623749,11.2713419 L1.7767464,8.71781434 L18.5072909,1.86580528 Z" id="Shape"></path>
            </g>
        </g>
    </g>
</svg>

<svg width="40" height="27" xmlns="http://www.w3.org/2000/svg"><path d="M1.115 10.281l5.88 2.408v9.916c0 2.855 6.118 4.347 12.16 4.347 6.043 0 12.16-1.492 12.16-4.347V12.69l5.21-2.134v5.151a1.575 1.575 0 00-1.252 1.186l-.451 2.091c-.095.454.02.925.312 1.284.312.382.78.603 1.272.6h1.977c.492.003.96-.218 1.271-.6.293-.359.408-.83.313-1.284l-.449-2.086a1.579 1.579 0 00-1.255-1.19V8.693a1.71 1.71 0 00-1.067-1.586L20.458.26a3.425 3.425 0 00-2.606 0L1.115 7.108a1.713 1.713 0 000 3.173zm28.463 12.324c0 .92-3.957 2.609-10.423 2.609-6.465 0-10.422-1.689-10.422-2.609V13.4l9.12 3.728a3.427 3.427 0 002.612 0l9.113-3.728v9.205zm6.99-3.477l.374-1.74h.905l.374 1.74h-1.653zM18.508 1.866a1.7 1.7 0 011.295 0l16.729 6.798v.01l-6.414 2.629-.018.007-10.297 4.213c-.415.17-.88.17-1.296 0l-10.19-4.145a.844.844 0 00-.26-.107l-6.28-2.553 16.73-6.852z"/></svg>
